shared/images/iconfont/56-kb-iconfont-keybase-16.svg

<?xml version="1.0" encoding="UTF-8"?>
<svg width="16px" height="16px" viewBox="0 0 16 16" version="1.1" xmlns="http://www.w3.org/2000/svg" xmlns:xlink="http://www.w3.org/1999/xlink">
    <!-- Generator: sketchtool 54.1 (76490) - https://sketchapp.com -->
    <title>D96CAEC4-7A53-4BF6-B103-BAC1130F1A6E</title>
    <desc>Created with sketchtool.</desc>
    <g id="Symbols" stroke="none" stroke-width="1" fill="none" fill-rule="evenodd">
        <g id="56-kb-iconfont-keybase-16">
            <g>
                <rect id="icon-area" opacity="0" x="0" y="0" width="16" height="16"></rect>
                <path d="M5.53938255,1.59410606 C5.8041575,1.19025998 6.10065515,0.780357259 6.41085611,0.351493349 C6.47546434,0.262222833 6.54072387,0.171953669 6.60663469,0.0805555979 L7.42639506,0.56285953 C7.02181205,1.42412896 7.06822751,1.74313211 7.08941623,1.81585979 C7.41471521,1.8060904 7.80483952,1.87525768 8.24889086,2.02258008 C8.9833319,2.26633722 9.57010317,2.78585167 9.90117695,3.48547026 C10.232077,4.18474149 10.261255,4.96868076 9.98337008,5.69283137 C9.97645807,5.71084278 9.96937035,5.72874653 9.96210954,5.74654129 C9.98079479,5.75299412 9.99946991,5.75952001 10.0181346,5.76611892 C11.0893899,6.1296985 12.0811734,6.75889539 12.920331,7.62187776 C14.2587808,8.99836311 15.0263944,10.8162512 15.0263944,12.6092599 C15.0263944,13.8624682 14.8101891,15.0181165 14.3924009,16 L13.3399625,16 C13.9287683,14.8515786 14.0711651,13.5663844 14.0711651,12.6092599 C14.0711651,12.2719501 14.0393369,11.9332813 13.9774603,11.5974442 C13.95442,11.6346395 13.9301845,11.6713026 13.9047511,11.7074019 C13.2867178,12.5846063 12.0969798,12.9191971 10.8734614,12.5600743 C8.05123656,11.7313695 5.56408012,12.0797677 3.48128958,13.5954994 L2.30197223,14.4537295 L3.85998099,10.5793902 L1.62245033,13.4370308 C1.74586251,14.3708376 2.07477902,15.24457 2.56195061,16 L1.44664593,16 C1.18829475,15.5123671 0.984284465,14.9851441 0.842738632,14.432832 L0,15.5091275 L0,14.3064071 C0,12.312887 0,9.83189615 2.24157569,7.56756864 C2.74045874,7.06362593 3.2932644,6.63677481 3.88555229,6.29496543 L3.57797924,6.27663582 C2.58033224,6.21778425 1.81586991,5.38798915 1.87424386,4.42197244 L1.95856871,3.11183588 C2.01787615,2.19070698 2.81507271,1.46920595 3.77351332,1.46920595 C3.79732757,1.46920595 4.2873037,1.49731327 5.24344171,1.5535279 C5.34408826,1.55940695 5.44298151,1.57305026 5.53938255,1.59410606 Z M4.83118255,2.86099425 L3.8005844,2.78845192 C3.79149847,2.78791254 3.78247478,2.78767282 3.77351332,2.78767282 C3.53678141,2.78767282 3.33975376,2.96470697 3.32506692,3.19340104 L3.24074207,4.5035376 C3.22642863,4.74098149 3.41511715,4.94606302 3.66168177,4.96062609 L4.45863034,5.00574454 C4.43277332,4.80555194 4.42612972,4.5984236 4.43906738,4.38610036 C4.46228676,3.81458164 4.61691712,3.37191818 4.74899308,3.05762526 C4.77502382,2.99185097 4.80244546,2.9263253 4.83118255,2.86099425 Z M7.51905823,6.49197388 C7.30578795,6.6015625 7.1879425,6.6015625 6.81029388,6.57599004 L7.83831027,7.79107713 L7.3387711,8.18398025 C7.23938602,8.26212938 7.22463695,8.40308548 7.30578795,8.49879419 L7.41108511,8.62296979 C7.45508339,8.67480951 7.51905825,8.70165829 7.58353098,8.70165829 C7.63300571,8.70165829 7.6827916,8.68583669 7.72411389,8.65335446 L8.22962736,8.25565691 L8.64720651,8.75134052 L7.6252889,9.55476629 C7.52609051,9.63273563 7.51127921,9.77339207 7.59230574,9.86892099 L8.05282522,10.4121293 C8.09918833,10.4668457 8.16671045,10.4951928 8.23473042,10.4951928 C8.28688114,10.4951928 8.33934302,10.4785321 8.38290567,10.4443119 L9.39990693,9.64484155 L9.68630026,9.98482621 C9.7459811,10.0550645 9.83254631,10.0913823 9.91992055,10.0913823 C9.94269759,10.0913823 9.96547464,10.0889252 9.98787829,10.0839509 C10.0314409,10.0742422 10.0733856,10.0551844 10.110476,10.0259983 C10.239297,9.92465618 10.2586513,9.74198859 10.1533541,9.61775305 L7.51905823,6.49197388 Z M6.85330318,14.562682 C6.85330318,14.9194602 6.56408582,15.2086775 6.20730769,15.2086775 C5.85052957,15.2086775 5.5613122,14.9194602 5.5613122,14.562682 C5.5613122,14.2059039 5.85052957,13.9166865 6.20730769,13.9166865 C6.56408582,13.9166865 6.85330318,14.2059039 6.85330318,14.562682 Z M10.8919971,14.562682 C10.8919971,14.9194602 10.6027797,15.2086775 10.2460016,15.2086775 C9.88922347,15.2086775 9.6000061,14.9194602 9.6000061,14.562682 C9.6000061,14.2059039 9.88922347,13.9166865 10.2460016,13.9166865 C10.6027797,13.9166865 10.8919971,14.2059039 10.8919971,14.562682 Z" id="Combined-Shape" fill="#000000"></path>
            </g>
        </g>
    </g>
</svg>

<svg xmlns="http://www.w3.org/2000/svg" width="16" height="16" viewBox="0 0 16 16">
    <path fill="#000" fill-rule="nonzero" d="M5.54 1.594c.264-.404.56-.814.87-1.243l.197-.27.82.482c-.405.861-.359 1.18-.338 1.253.326-.01.716.06 1.16.207A2.781 2.781 0 0 1 9.9 3.485a2.784 2.784 0 0 1 .061 2.262l.056.02a7.348 7.348 0 0 1 2.902 1.855c1.339 1.376 2.106 3.194 2.106 4.987 0 1.253-.216 2.41-.634 3.391H13.34c.589-1.148.731-2.434.731-3.39 0-.338-.032-.677-.094-1.013a2.228 2.228 0 0 1-.072.11c-.618.878-1.808 1.212-3.032.853-2.822-.829-5.309-.48-7.392 1.035l-1.179.859 1.558-3.875-2.238 2.858A6.24 6.24 0 0 0 2.562 16H1.447a7.134 7.134 0 0 1-.604-1.567L0 15.509v-1.203c0-1.993 0-4.474 2.242-6.738a7.806 7.806 0 0 1 1.644-1.273l-.308-.018c-.998-.06-1.762-.889-1.704-1.855l.085-1.31c.059-.921.856-1.643 1.815-1.643.023 0 .513.028 1.47.085.1.005.199.02.295.04zM4.83 2.861l-1.03-.073h-.027a.442.442 0 0 0-.449.405l-.084 1.31a.44.44 0 0 0 .42.458l.798.045a3.278 3.278 0 0 1-.02-.62 3.746 3.746 0 0 1 .31-1.328c.026-.066.053-.132.082-.197zM7.52 6.492c-.213.11-.331.11-.709.084l1.028 1.215-.5.393a.218.218 0 0 0-.032.315l.105.124a.227.227 0 0 0 .313.03l.506-.397.417.495-1.022.804a.218.218 0 0 0-.033.314l.46.543a.24.24 0 0 0 .33.032l1.018-.8.286.34a.306.306 0 0 0 .302.1.305.305 0 0 0 .122-.058.283.283 0 0 0 .043-.408L7.52 6.492zm-.666 8.07a.646.646 0 1 1-1.292 0 .646.646 0 0 1 1.292 0zm4.039 0a.646.646 0 1 1-1.292 0 .646.646 0 0 1 1.292 0z"/>
</svg>
